dist/assets/img/icon-time.svg

<?xml version="1.0" encoding="UTF-8"?>
<svg width="67px" height="70px" viewBox="0 0 67 70" version="1.1" xmlns="http://www.w3.org/2000/svg" xmlns:xlink="http://www.w3.org/1999/xlink">
    <!-- Generator: Sketch 46.2 (44496) - http://www.bohemiancoding.com/sketch -->
    <title>stopwatch</title>
    <desc>Created with Sketch.</desc>
    <defs></defs>
    <g id="04---Web-Site" stroke="none" stroke-width="1" fill="none" fill-rule="evenodd">
        <g id="Landing-page" transform="translate(-338.000000, -2143.000000)" fill-rule="nonzero">
            <g id="section" transform="translate(241.000000, 2048.000000)">
                <g id="list" transform="translate(0.000000, 95.000000)">
                    <g id="#1">
                        <g id="stopwatch" transform="translate(97.000000, 0.000000)">
                            <path d="M35.7396667,44.3205 C36.9541667,44.226 38.0613333,43.6065 38.78,42.6183333 L49.7035,27.517 C50.0383333,27.0538333 49.9881667,26.4145 49.5821667,26.0085 C49.1761667,25.6036667 48.5368333,25.5535 48.0736667,25.8871667 L32.97,36.8141667 C31.9853333,37.5305 31.3658333,38.6376667 31.2713333,39.8521667 C31.1768333,41.0666667 31.6166667,42.2555 32.4765,43.1153333 C33.2593333,43.8993333 34.3151667,44.3333333 35.413,44.3333333 C35.5215,44.3333333 35.63,44.3286667 35.7396667,44.3205 Z M33.5976667,40.0341667 C33.6385,39.501 33.9115,39.0145 34.3408333,38.7018333 L43.554,32.0366667 L36.8911667,41.2475 C36.5761667,41.6803333 36.0896667,41.9521667 35.5565,41.9941667 C35.0256667,42.0291667 34.5041667,41.8448333 34.125,41.4656667 C33.7493333,41.0888333 33.5556667,40.5661667 33.5976667,40.0341667 Z" id="Shape" fill="#196DFF"></path>
                            <path d="M61.873,22.8246667 C61.8613333,22.8001667 61.8613333,22.7745 61.8485,22.75 C61.8345,22.7266667 61.8123333,22.7138333 61.7971667,22.6916667 C60.6176667,20.6686667 59.2223333,18.7868333 57.638,17.0811667 L60.144,14.5763333 L61.7936667,16.226 L66.7426667,11.2758333 L61.7936667,6.32683333 L56.8435,11.2758333 L58.4943333,12.9266667 L55.9883333,15.4315 C54.2826667,13.8471667 52.402,12.4506667 50.3778333,11.2711667 C50.3556667,11.256 50.3428333,11.2338333 50.3195,11.2198333 C50.295,11.2058333 50.2693333,11.207 50.2448333,11.1941667 C46.6363333,9.11516667 42.5821667,7.73033333 38.2596667,7.22283333 L38.2596667,5.83333333 L40.0096667,5.83333333 C41.6185,5.83333333 42.9263333,4.5255 42.9263333,2.91666667 C42.9263333,1.30783333 41.6173333,0 40.0085,0 L29.5085,0 C27.8996667,0 26.5918333,1.30783333 26.5918333,2.91666667 C26.5918333,4.5255 27.8996667,5.83333333 29.5085,5.83333333 L31.2585,5.83333333 L31.2585,7.182 C29.9985,7.31616667 28.7408333,7.5215 27.4971667,7.80616667 C26.8695,7.94966667 26.4763333,8.57616667 26.621,9.20383333 C26.7645,9.8315 27.391,10.2258333 28.0186667,10.08 C29.092,9.83383333 30.1758333,9.64833333 31.262,9.5235 L32.5138333,9.42666667 C32.8965,9.3975 33.2488333,9.3765 33.5918333,9.36016667 L33.5918333,11.6666667 C33.5918333,12.3118333 34.1133333,12.8333333 34.7585,12.8333333 C35.4036667,12.8333333 35.9251667,12.3118333 35.9251667,11.6666667 L35.9251667,9.36833333 C40.313,9.57016667 44.4476667,10.7485 48.1238333,12.6875 L46.9735,14.679 C46.6515,15.2378333 46.8428333,15.9506667 47.4005,16.2726667 C47.5836667,16.3788333 47.7843333,16.429 47.9826667,16.429 C48.3863333,16.429 48.7783333,16.2201667 48.9941667,15.8456667 L50.141,13.8588333 C53.7915,16.1746667 56.8925,19.2756667 59.2083333,22.9261667 L57.2215,24.073 C56.665,24.395 56.4736667,25.1078333 56.7968333,25.6666667 C57.0138333,26.0411667 57.4046667,26.25 57.8083333,26.25 C58.0066667,26.25 58.2073333,26.1998333 58.3905,26.0936667 L60.382,24.9433333 C62.3478333,28.672 63.5296667,32.8743333 63.7058333,37.3321667 L61.4016667,37.3321667 C60.7565,37.3321667 60.235,37.8536667 60.235,38.4988333 C60.235,39.144 60.7565,39.6655 61.4016667,39.6655 L63.7058333,39.6655 C63.5296667,44.1233333 62.3478333,48.3256667 60.382,52.0543333 L58.3905,50.904 C57.8328333,50.582 57.1188333,50.771 56.7968333,51.331 C56.4748333,51.8898333 56.6661667,52.6026667 57.2238333,52.9246667 L59.2106667,54.0715 C56.8948333,57.722 53.7938333,60.823 50.1433333,63.1388333 L48.9965,61.152 C48.6733333,60.592 47.9581667,60.4018333 47.4028333,60.725 C46.844,61.047 46.6526667,61.761 46.9758333,62.3186667 L48.1261667,64.3101667 C44.45,66.2491667 40.3153333,67.4275 35.9275,67.6293333 L35.9275,65.3333333 C35.9275,64.6881667 35.406,64.1666667 34.7608333,64.1666667 C34.1156667,64.1666667 33.5941667,64.6881667 33.5941667,65.3333333 L33.5941667,67.6386667 C31.731,67.5745 29.862,67.3411667 28.0221667,66.9188333 C27.3945,66.7683333 26.768,67.1673333 26.6245,67.795 C26.4798333,68.4226667 26.873,69.0491667 27.5006667,69.1926667 C29.8293333,69.7293333 32.2081667,70 34.5683333,70 C34.6255,70 34.6803333,69.9965 34.7375,69.9953333 C34.7456667,69.9953333 34.7515,70 34.7585,70 C34.7678333,70 34.776,69.9941667 34.7853333,69.9941667 C40.3935,69.9556667 45.6551667,68.4413333 50.2075,65.8256667 C50.2436667,65.8093333 50.2821667,65.8011667 50.3171667,65.7801667 C50.3405,65.7661667 50.3533333,65.744 50.3755,65.7288333 C55.0876667,62.9825 59.0251667,59.0496667 61.7773333,54.341 C61.7995,54.3095 61.8275,54.285 61.8473333,54.25 C61.8613333,54.2255 61.8601667,54.1998333 61.8718333,54.1753333 C64.5365,49.5553333 66.0683333,44.205 66.0683333,38.5 C66.0683333,32.795 64.5365,27.4446667 61.873,22.8246667 Z M61.7925,9.62616667 L63.4421667,11.2758333 L61.7925,12.9266667 L60.1416667,11.2758333 L61.7925,9.62616667 Z M33.5918333,7.0245 L33.5918333,3.5 L29.5085,3.5 C29.1876667,3.5 28.9251667,3.2375 28.9251667,2.91666667 C28.9251667,2.59583333 29.1876667,2.33333333 29.5085,2.33333333 L40.0085,2.33333333 C40.3293333,2.33333333 40.5918333,2.59583333 40.5918333,2.91666667 C40.5918333,3.2375 40.3293333,3.5 40.0085,3.5 L35.9251667,3.5 L35.9251667,7.0245 C35.5191667,7.00816667 35.1318333,7 34.7585,7 C34.7258333,7 34.6885,7.00233333 34.6558333,7.00233333 C34.6266667,7.00233333 34.5975,7 34.5683333,7 C34.377,7 34.1856667,7.01283333 33.9943333,7.01633333 C33.859,7.01983333 33.7318333,7.01866667 33.5918333,7.0245 Z" id="Shape" fill="#4A4A4A"></path>
                            <path d="M24.2585,16.3333333 L18.4251667,16.3333333 C17.78,16.3333333 17.2585,16.8548333 17.2585,17.5 C17.2585,18.1451667 17.78,18.6666667 18.4251667,18.6666667 L24.2585,18.6666667 C24.9036667,18.6666667 25.4251667,18.1451667 25.4251667,17.5 C25.4251667,16.8548333 24.9036667,16.3333333 24.2585,16.3333333 Z" id="Shape" fill="#4A4A4A"></path>
                            <path d="M24.2585,24.5 L12.5918333,24.5 C11.9466667,24.5 11.4251667,25.0215 11.4251667,25.6666667 C11.4251667,26.3118333 11.9466667,26.8333333 12.5918333,26.8333333 L24.2585,26.8333333 C24.9036667,26.8333333 25.4251667,26.3118333 25.4251667,25.6666667 C25.4251667,25.0215 24.9036667,24.5 24.2585,24.5 Z" id="Shape" fill="#4A4A4A"></path>
                            <path d="M24.2585,32.6666667 L6.7585,32.6666667 C6.11333333,32.6666667 5.59183333,33.1881667 5.59183333,33.8333333 C5.59183333,34.4785 6.11333333,35 6.7585,35 L24.2585,35 C24.9036667,35 25.4251667,34.4785 25.4251667,33.8333333 C25.4251667,33.1881667 24.9036667,32.6666667 24.2585,32.6666667 Z" id="Shape" fill="#4A4A4A"></path>
                            <path d="M24.2585,40.8333333 L2.09183333,40.8333333 C1.44666667,40.8333333 0.925166667,41.3548333 0.925166667,42 C0.925166667,42.6451667 1.44666667,43.1666667 2.09183333,43.1666667 L24.2585,43.1666667 C24.9036667,43.1666667 25.4251667,42.6451667 25.4251667,42 C25.4251667,41.3548333 24.9036667,40.8333333 24.2585,40.8333333 Z" id="Shape" fill="#4A4A4A"></path>
                            <path d="M24.2585,49 L9.09183333,49 C8.44666667,49 7.92516667,49.5215 7.92516667,50.1666667 C7.92516667,50.8118333 8.44666667,51.3333333 9.09183333,51.3333333 L24.2585,51.3333333 C24.9036667,51.3333333 25.4251667,50.8118333 25.4251667,50.1666667 C25.4251667,49.5215 24.9036667,49 24.2585,49 Z" id="Shape" fill="#4A4A4A"></path>
                            <path d="M24.2585,57.1666667 L16.0918333,57.1666667 C15.4466667,57.1666667 14.9251667,57.6881667 14.9251667,58.3333333 C14.9251667,58.9785 15.4466667,59.5 16.0918333,59.5 L24.2585,59.5 C24.9036667,59.5 25.4251667,58.9785 25.4251667,58.3333333 C25.4251667,57.6881667 24.9036667,57.1666667 24.2585,57.1666667 Z" id="Shape" fill="#4A4A4A"></path>
                        </g>
                    </g>
                </g>
            </g>
        </g>
    </g>
</svg>

<svg width="67" height="70" viewBox="0 0 67 70" xmlns="http://www.w3.org/2000/svg"><title>stopwatch</title><g fill-rule="nonzero" fill="none"><path d="M35.74 44.32a4.152 4.152 0 0 0 3.04-1.702l10.923-15.101a1.167 1.167 0 0 0-1.63-1.63L32.97 36.814a4.15 4.15 0 0 0-1.699 3.038 4.153 4.153 0 0 0 1.206 3.263 4.146 4.146 0 0 0 3.263 1.206zm-2.142-4.286a1.82 1.82 0 0 1 .743-1.332l9.213-6.665-6.663 9.21a1.826 1.826 0 0 1-2.766.219c-.376-.377-.57-.9-.527-1.432z" fill="#196DFF"/><path d="M61.873 22.825c-.012-.025-.012-.05-.024-.075-.014-.023-.037-.036-.052-.058a31.716 31.716 0 0 0-4.159-5.61l2.506-2.506 1.65 1.65 4.949-4.95-4.95-4.95-4.95 4.95 1.651 1.65-2.506 2.505a31.68 31.68 0 0 0-5.61-4.16c-.022-.015-.035-.037-.059-.051-.024-.014-.05-.013-.074-.026A31.279 31.279 0 0 0 38.26 7.223v-1.39h1.75a2.92 2.92 0 0 0 2.916-2.916A2.92 2.92 0 0 0 40.008 0h-10.5a2.92 2.92 0 0 0-2.916 2.917 2.92 2.92 0 0 0 2.917 2.916h1.75v1.349c-1.26.134-2.518.34-3.762.624a1.166 1.166 0 1 0 .522 2.274 29.67 29.67 0 0 1 3.243-.556l1.252-.097c.383-.03.735-.05 1.078-.067v2.307a1.166 1.166 0 1 0 2.333 0V9.368a28.94 28.94 0 0 1 12.199 3.32l-1.15 1.991a1.167 1.167 0 0 0 2.02 1.167l1.147-1.987a29.393 29.393 0 0 1 9.067 9.067l-1.986 1.147a1.166 1.166 0 0 0 1.169 2.02l1.991-1.15a28.956 28.956 0 0 1 3.324 12.39h-2.304a1.166 1.166 0 1 0 0 2.333h2.304a28.956 28.956 0 0 1-3.324 12.388l-1.991-1.15a1.167 1.167 0 0 0-1.167 2.02l1.987 1.147a29.393 29.393 0 0 1-9.068 9.068l-1.147-1.987a1.165 1.165 0 0 0-1.593-.427 1.165 1.165 0 0 0-.427 1.594l1.15 1.991a28.94 28.94 0 0 1-12.198 3.32v-2.297a1.166 1.166 0 1 0-2.334 0v2.306a29.44 29.44 0 0 1-5.572-.72 1.162 1.162 0 0 0-1.397.876 1.166 1.166 0 0 0 .876 1.398c2.328.536 4.707.807 7.067.807.058 0 .112-.004.17-.005.008 0 .014.005.02.005.01 0 .018-.006.027-.006a31.296 31.296 0 0 0 15.423-4.168c.036-.017.074-.025.11-.046.023-.014.035-.036.058-.051A31.73 31.73 0 0 0 61.776 54.34c.023-.032.05-.056.07-.091.014-.025.013-.05.025-.075A31.276 31.276 0 0 0 66.068 38.5a31.287 31.287 0 0 0-4.195-15.675zm-.08-13.199l1.65 1.65-1.65 1.65-1.651-1.65 1.65-1.65zM33.591 7.025V3.5h-4.083a.585.585 0 0 1-.584-.583c0-.321.263-.584.584-.584h10.5c.32 0 .583.263.583.584 0 .32-.263.583-.584.583h-4.083v3.524A29.005 29.005 0 0 0 34.76 7l-.103.002L34.568 7c-.191 0-.382.013-.574.016-.135.004-.262.003-.402.008zM24.259 16.333h-5.834a1.166 1.166 0 1 0 0 2.334h5.834a1.166 1.166 0 1 0 0-2.334zM24.259 24.5H12.592a1.166 1.166 0 1 0 0 2.333h11.667a1.166 1.166 0 1 0 0-2.333zM24.259 32.667h-17.5a1.166 1.166 0 1 0 0 2.333h17.5a1.166 1.166 0 1 0 0-2.333zM24.259 40.833H2.091a1.166 1.166 0 1 0 0 2.334h22.167a1.166 1.166 0 1 0 0-2.334zM24.259 49H9.092a1.166 1.166 0 1 0 0 2.333h15.167a1.166 1.166 0 1 0 0-2.333zM24.259 57.167h-8.167a1.166 1.166 0 1 0 0 2.333h8.167a1.166 1.166 0 1 0 0-2.333z" fill="#4A4A4A"/></g></svg>
